!!!!SEGMENT: pl-wtm--1348-fp-4573_stojowski-zygmunt--danses-humoresques-op-12-no-5-mazurka.krn
!!!cenid: 18xx:4457
!!!COM: Stojowski, Zygmunt
!!!COM-rismID: pe41019736
!!!CDT: 1870-1946
!!!CNT: Polish
!!!OTL: Danses Humoresques Op. 12/No. 5. Mazurka
!!!PDT: 1893
!!!AGN: Secular
!!!YEC: Copyright 2022 Narodowy Instytut Fryderyka Chopina (https://polishscores.org)
!!!YEM: License CC-BY-4.0 (https://creativecommons.org/licenses/by/4.0)
!!!SMS-siglum: PL-Wtm
!!!SMS-shelfmark: 1348 fp 4573
!!!SMS-variant:
!!!SMS-altvar:
!!!SMS-shelfwork: W
!!!NIFC-rismSourceID: 1001214675
!!!NIFC-rismChildID: 1001214675
!!!NIFC-islandoraID: pl-wtm:83011
!!!URL-pdf-islandora: https://repozytorium.nifc.pl/islandora/object/pl-wtm%3A83011/datastream/PDF/view
!!!URL-scan: https://polish.musicsources.pl/pl/lokalizacje/galeria/druki-muzyczne/18542/2 @EN{Scan on Polish Music Sources Website} @PL{Skany w portalu Dziedzictwo Muzyki Polskiej w otwartym dostępie}
!!!IIIF:
!!!ONB-nifc:
!!!AIN: 1 piano
!!!key: B
**kern	**fing	**kern	**fing	**dynam
*part1	*	*part1	*	*part1
*staff2	*	*staff1	*	*staff1/2
*group1	*	*group1	*	*
*ICklav	*	*ICklav	*	*
*Ipiano	*	*Ipiano	*	*
*I"PIANO.	*	*I"PIANO.	*	*
*	*	*I'	*	*
*clefF4	*	*clefG2	*	*
*k[f#c#g#d#a#]	*	*k[f#c#g#d#a#]	*	*
*B:	*	*B:	*	*
*M3/4	*	*M3/4	*	*
=1	=1	=1	=1	=1
!!LO:TX:a:B:t=Allegretto moderato.
4CCC#^/	.	2.r	.	mf
4e 4G#\	.	.	.	.
4e 4G#\	.	.	.	.
=2	=2	=2	=2	=2
4C#/	.	2.r	.	.
4e 4G#\	.	.	.	.
4e 4G#\	.	.	.	.
=3	=3	=3	=3	=3
!	!	!LO:TX:b:i:t=molto cantabile e rubato	!	!
4CC#/	.	(>8g#/L	.	.
.	.	8a#/	.	.
4e 4G#\	.	8b/	.	.
.	.	(16qqb/LL	.	.
.	.	16qqcc#/JJ	.	.
.	.	8b/)	.	.
4e 4G#\	.	8a#/	.	.
.	.	8g#/J	.	.
=4	=4	=4	=4	=4
*	*	*^	*	*
4DD#/	.	2a#:/	2f##X:\	.	>
4F##X 4D#\	.	.	.	.	.
4A# 4D#\	.	8f##/L	4ryy	.	] p
.	.	8d#/J	.	.	.
!!LO:LB:g=original
=5	=5	=5	=5	=5	=5
4CC#/	.	8g#/L	[2.e\	.	.
.	.	8a#/	.	.	.
4G# 4C#\	.	8cc#/	.	.	.
.	.	(<16qqb/LL	.	.	.
.	.	16qqcc#/JJ	.	.	.
.	.	8b/)	.	.	.
4G# 4C#\	.	8a#/	.	.	.
.	.	8g#/J	.	.	.
=6	=6	=6	=6	=6	=6
4FF#/	.	2cc#: 2a#:/)	2.e\]	.	.
4A# 4C#\	.	.	.	.	.
4A# 4C#\	.	4cc#~/	.	.	.
=7	=7	=7	=7	=7	=7
4CC#/	.	(8g#/L	2.e\	.	.
.	.	8a#/	.	.	.
4G# 4C#\	.	8b/	.	.	.
.	.	(<16qqb/LL	.	.	.
.	.	16qqcc#/JJ	.	.	.
.	.	8b/)	.	.	.
4G# 4C#\	.	8a#/	.	.	.
.	.	8g#/J	.	.	.
*	*	*v	*v	*	*
=8	=8	=8	=8	=8
4DD#/	.	2a#: 2f##X:/	.	.
4F##X 4D#\	.	.	.	.
4A# 4D#\	.	8f##/L	.	.
.	.	8d#/J	.	.
!!LO:LB:g=original
=9	=9	=9	=9	=9
*	*	*^	*	*
4CC#/	.	8g#/L	[2.e\	.	.
.	.	8a#/	.	.	.
4G# 4C#\	.	8cc#/	.	.	.
.	.	(<16qqb/LL	.	.	.
.	.	16qqcc#/JJ	.	.	.
.	.	8b/)	.	.	.
4G# 4C#\	.	8a#/	.	.	.
.	.	8g#/J	.	.	.
=10	=10	=10	=10	=10	=10
4FF#/	.	2cc#: 2a#:/)	2.e\]	.	.
4A# 4C#\	.	.	.	.	.
!	!	!LO:TX:b:i:t=espress.	!	!	!
4A# 4C#\	.	4cc#~/	.	.	.
=11	=11	=11	=11	=11	=11
4EE/	.	(8b/L	2.gn\	.	.
.	.	8cc#/	.	.	.
4B 4Gn\	.	8ddn/	.	.	.
.	.	(<16qqdd/LL	.	.	.
.	.	16qqee/JJ	.	.	.
.	.	8dd/)	.	.	.
4B 4G\	.	8cc#/	.	.	.
.	.	8b/J	.	.	.
*	*	*v	*v	*	*
=12	=12	=12	=12	=12
4FF#/	.	2cc#: 2a#:\	.	.
4A# 4C#\	.	.	.	.
4A# 4C#\	.	8a#/L	.	.
.	.	8f#/J	.	.
=13	=13	=13	=13	=13
*	*	*^	*	*
4EE/	.	8b/L	2.gn\	.	>
.	.	8cc#/	.	.	.
4B 4Gn\	.	8ee/	.	.	.
.	.	(<16qqddn/LL	.	.	]
.	.	16qqee/JJ	.	.	.
.	.	8ddny/)	.	.	.
4B 4G\	.	8cc#/	.	.	.
.	.	8b/J	.	.	.
*	*	*v	*v	*	*
!!LO:LB:g=original
=14	=14	=14	=14	=14
4AAn/	.	2ee 2cc#'\)	.	.
4c# 4E\	.	.	.	.
4c# 4E\	.	4ee~\	.	.
=15	=15	=15	=15	=15
*	*	*^	*	*
!	!	!	!	!	!LO:DY:t=più %s
4EE/	.	(8b/L	2.gn\	.	p
.	.	8cc#/	.	.	.
4B 4Gn\	.	8ddn/	.	.	.
.	.	(<16qqdd/LL	.	.	.
.	.	16qqee/JJ	.	.	.
.	.	8dd/)	.	.	.
4B 4G\	.	8cc#/	.	.	.
.	.	8b/J	.	.	.
*	*	*v	*v	*	*
=16	=16	=16	=16	=16
4FF#/	.	2cc# 2a#\	.	.
4A# 4C#\	.	.	.	.
4A# 4C#\	.	8a#/L	.	.
.	.	8f#/J	.	.
=17	=17	=17	=17	=17
*	*	*^	*	*
4EE/	.	8b/L	2.gn\	.	.
.	.	8cc#/	.	.	.
4B 4Gn\	.	8ee/	.	.	.
.	.	(<16qqdd/LL	.	.	.
.	.	16qqee/JJ	.	.	.
.	.	8ddny/)	.	.	.
4B 4G\	.	8cc#/	.	.	.
!	!	!LO:TX:b:i:t=slentando	!	!	!
.	.	8b/J	.	.	.
*	*	*v	*v	*	*
=18	=18	=18	=18	=18
4AAn/	.	2ee 2cc#\)	.	.
4c# 4E\	.	.	.	.
4r	.	4ee~\	.	.
!!LO:PB:g=original
=19	=19	=19	=19	=19
!!LO:TX:a:B:t=Più vivo.
!	!	!	!	!LO:DY:t=%s con fuoco
4Dn 4DDn^/	.	8ff#L 8b#X 8f#^\	.	f
.	.	8gg#J 8g#\	.	.
4B#X 4F#\	.	4ff# 4b# 4f#'\	.	.
4GG# 4GGG#^/	.	8ff#L 8b# 8f#^\	.	.
.	.	8gg#J 8g#\	.	.
=20	=20	=20	=20	=20
4Dn 4DDn/	.	8ff#L 8b#X 8f#^\	.	.
.	.	8gg#J 8g#\	.	.
4B#X 4F#\	.	4ff# 4f#'\	.	.
4GG# 4GGG#/	.	8ff#L 8b# 8f#^\	.	.
.	.	8gg#J 8g#\	.	.
=21	=21	=21	=21	=21
4Dn 4DDn/	.	8bbnL 8ff# 8bn^\	.	.
.	.	8gg#J 8g#\	.	.
4B#X 4F#\	.	4ff# 4f#\	.	.
4GG# 4GGG#/	.	8ff#L 8b#X 8f#^\	.	.
.	.	8gg#J 8g#\	.	.
=22	=22	=22	=22	=22
4GGn 4GGGn^/	.	2ee#X 2cc# 2b 2e#X^>/	.	.
4B 4Gn\	.	.	.	.
!LO:TX:a:i:t=m.d.	!	!	!	!
4r	.	8B</L	.	.
.	.	16c#</Jk	.	.
.	.	16rd<	.	.
!!LO:LB:g=original
=23	=23	=23	=23	=23
8B^\	.	8rf<	.	.
8r	.	8c#<^/	.	.
!	!	!LO:TX:b:i:t=rit.	!	!
[2B^<\	.	4r	.	.
.	.	4r	.	.
=24	=24	=24	=24	=24
*^	*	*	*	*
!LO:TX:a:i:t=a tempo	!	!	!LO:TX:t=P:problem:klamra w oznaczeniach palcowania	!	!LO:DY:b=2:rj
8B/L]	[2.GGn [2.GGGn\	.	4ggn 4ee#X 4b 4gn 4e#X^\	1 2 4 5	sf
8c#J 8C#/	.	.	.	.	.
4B 4BB/	.	.	4gg 4ee# 4b 4g 4e#\	.	.
8BL 8BB/	.	.	4gg 4ee# 4b 4g 4e#\	.	.
8c#J 8C#/	.	.	.	.	.
=25	=25	=25	=25	=25	=25
8BL 8BB/	2.GG] 2.GGG\]	.	4ggn 4ee#X 4b 4gn 4e#X\	.	.
8c#J 8C#/	.	.	.	.	.
4B 4BB/	.	.	4gg 4ee# 4b 4g 4e#\	.	.
8BL 8BB/	.	.	4gg 4ee# 4b 4g 4e#\	.	.
8c#J 8C#/	.	.	.	.	.
*v	*v	*	*	*	*
=26	=26	=26	=26	=26
8enXL 8EnX\	.	4ggn 4ee#X 4b 4gn 4e#X\	.	.
8c#J 8C#\	.	.	.	.
4B 4BB\	.	4gg 4ee# 4b 4g 4e#\	.	.
8BL 8BB\	.	4gg 4ee# 4b 4g 4e#\	.	.
8c#J 8C#\	.	.	.	.
!!LO:LB:g=original
=27	=27	=27	=27	=27
4GGn 4GGGn^>/	.	4ggn 4ee#X 4b 4gn 4e#X^\	.	.
4B\	.	4r	.	.
4r	.	8B<^/L	.	.
.	.	16c#</Jk	.	.
.	.	16rd<	.	.
=28	=28	=28	=28	=28
8B^\	.	8rf<	.	.
8rD	.	8dn<^/	.	.
2B^<;\	.	2ryy	.	.
=29	=29	=29	=29	=29
*^	*	*	*	*
8rF	[2.GGn [2.GGGn\	.	4ggn 4ee#X 4b 4gn 4e#X\	.	.
8c# 8C#/	.	.	.	.	.
4B 4BB/	.	.	4gg 4ee# 4b 4g 4e#\	.	.
8BL 8BB/	.	.	4gg 4ee# 4b 4g 4e#\	.	.
8c#J 8C#/	.	.	.	.	.
=30	=30	=30	=30	=30	=30
8BL 8BB/	2.GG] 2.GGG\]	.	4ggn 4ee#X 4b 4gn 4e#X\	.	.
8c#J 8C#/	.	.	.	.	.
4B 4BB/	.	.	4gg 4ee# 4b 4g 4e#\	.	.
8BL 8BB/	.	.	4gg 4ee# 4b 4g 4e#\	.	.
8c#J 8C#/	.	.	.	.	.
*v	*v	*	*	*	*
!!LO:LB:g=original
=31	=31	=31	=31	=31
8enL 8En\	.	4ggn 4ee#X 4b 4gn 4e#X\	.	.
8c#J 8C#\	.	.	.	.
4B 4BB\	.	4gg 4ee# 4b 4g 4e#\	.	.
8BL 8BB\	.	4gg 4ee# 4b 4g 4e#\	.	.
8c#J 8C#\	.	.	.	.
=32	=32	=32	=32	=32
8enL 8En\	.	4ggn 4ee#X 4b 4gn 4e#X\	.	<
8c# 8C#\	.	.	.	.
8B 8BB\	.	4gg 4ee# 4b 4g 4e#\	.	.
8c# 8C#\	.	.	.	.
8e 8E\	.	4gg 4ee# 4b 4g 4e#\	.	.
8c#J 8C#\	.	.	.	.
=33	=33	=33	=33	=33
8BL 8BB\	.	4ggn 4ee#X 4b 4gn 4e#X\	.	.
8c# 8C#\	.	.	.	.
8en 8En\	.	4gg 4ee# 4b 4g 4e#\	.	.
8c#J 8C#\	.	.	.	.
4B 4BB\	.	4gg 4ee# 4b 4g 4e#\	.	[
!!LO:PB:g=original
=34	=34	=34	=34	=34
*Xbrackettup	*	*	*	*
!LO:TX:a:i:t=ad lib.	!	!	!	!
!LO:TUP:a	!	!	!	!
N(28%3GGGn^<\L	.	14%3ryy	.	ff
28%3GGn^<\	.	.	.	.
!!LO:TX:a:i:t=accel. molto
28%3BB\	.	14%3ryy	.	.
28%3C#\J	.	.	.	.
28%3E#X/L	.	14%3.ryy	.	.
28%3B/	.	.	.	.
28%3c#/J	.	.	.	.
=35	=35	=35	=35	=35
*	*	*Xtuplet	*	*
!LO:TUP:a	!	!	!	!
N(28%3GGn\L	.	28%3gn 28%3B/N)	.	.
28%3Gn\	.	14%3.ryy	.	.
28%3B\	.	.	.	.
28%3c#\J	.	.	.	.
28%3e#X>/L	.	14%3.ryy	.	.
28%3b>/	.	.	.	.
28%3cc#>/J	.	.	.	.
=36	=36	=36	=36	=36
!LO:TX:t=P:problem:mixed beam	!	!	!	!
N(28%3Gn/L	.	28%3ggn 28%3b/N)	.	.
28%3gn>\	.	14%3.ryy	.	.
28%3b>\	.	.	.	.
28%3cc#>\J	.	.	.	.
28%3ee#X>/L	.	14%3.ryy	.	.
28%3bb>/	.	.	.	.
28%3ccc#>/J	.	.	.	.
!!LO:LB:g=original
=37	=37	=37	=37	=37
*Xtuplet	*	*	*	*
N(<28%3gn>\L	.	28%3gggn 28%3bb/N)	.	.
28%3ggn>\	.	14%3.ryy	.	.
28%3bb>\	.	.	.	.
28%3ccc#>\J	.	.	.	.
*	*	*8va	*	*
14%3.ryy	.	28%3eee#X/L	.	.
.	.	28%3bbb/	.	.
.	.	28%3cccc#/JN)	.	.
=38	=38	=38	=38	=38
4ryy	.	(>8ggggnL 8bbb/	.	.
.	.	8cccc#J 8eee#X/	.	.
*8va	*	*	*	*
8gggn>L 8bb>\	.	4ryy	.	.
8ccc#>J 8ee#X>\	.	.	.	.
*X8va	*	*	*	*
4ryy	.	8gggnyL 8bb/	.	.
.	.	8ccc#J 8ee#y/	.	.
*	*	*X8va	*	*
=39	=39	=39	=39	=39
8ggn>L 8b>\	.	4ryy	.	.
8cc#>J 8e#X>\	.	.	.	.
4ryy	.	8ggnyL 8b/	.	.
.	.	8cc#J 8e#y/	.	.
8gn>L 8B\	.	4ryy	.	.
8c#J 8E#X\	.	.	.	.
!!LO:LB:g=original
=40	=40	=40	=40	=40
4ryy	.	8gnL 8B/	.	.
.	.	8c#J 8E#X</	.	.
8GnL 8BB\	.	4ryy	.	.
8C#J 8EE#X\	.	.	.	.
4ryy	.	8Gny<L 8BB</	.	.
.	.	8C#<J 8EE#y</)	.	.
=41	=41	=41	=41	=41
!!LO:TX:a:B:t=Sostenuto.
2GGGn^/	.	2.r	.	.
4GGG^/	.	.	.	.
=42	=42	=42	=42	=42
!	!	!LO:TX:b:i:t=rit.	!	!
4GGGn^/	.	2.r	.	.
4GGG^/	.	.	.	.
4GGG^/	.	.	.	.
=43	=43	=43	=43	=43
*	*	*^	*	*
*8ba	*	*	*	*	*
!!LO:TX:a:B:t=Tempo I.
!	!	!	!	!	!LO:DY:t=%s espress.
4CCn 4CCCn/	.	2.a#X/	(8e\L	.	f
*X8ba	*	*	*tuplet	*	*
.	.	.	8f#X\	.	.
4A#\	.	.	8gn\	.	.
!	!	!	!LO:TUP:a	!	!
.	.	.	24g\L	.	.
.	.	.	24an\	.	.
.	.	.	24g\J	.	.
!!LO:TX:a:i:t=poco a
4r	.	.	8f#\	.	.
.	.	.	8e\J)	.	.
!!LO:LB:g=original
=44	=44	=44	=44	=44	=44
*8ba	*	*	*	*	*
!!LO:TX:a:i:t=poco dim. e rall.-:dur=9q:ext=ud:problem:text with extention lines
!	!	!	!	!	!LO:DY:a
4BBBB#X/	.	2.a#X/	(8d#X\L	.	.
*X8ba	*	*	*	*	*
.	.	.	8e#X\	.	.
4A#\	.	.	8f#\	.	.
!	!	!	!LO:TUP:a	!	!
.	.	.	24f#\L	.	.
.	.	.	24g#X\	.	.
.	.	.	24f#\J	.	.
4r	.	.	8e#\	.	.
.	.	.	8d#\J)	.	.
=45	=45	=45	=45	=45	=45
*8ba	*	*	*	*	*
4CCCn/	.	2.a#/	(8en\L	.	.
*X8ba	*	*	*	*	*
.	.	.	8f#X\	.	.
4A#\	.	.	8gn\	.	.
!	!	!	!LO:TUP:a	!	!
.	.	.	24g\L	.	.
.	.	.	24an\	.	.
.	.	.	24g\J	.	.
4r	.	.	8f#\	.	.
.	.	.	8e\J)	.	.
=46	=46	=46	=46	=46	=46
!	!	!	!	!	!LO:HP:t=molto dim.
(4BBB#X/	.	(2an/	(8d#\L	.	>
.	.	.	8e\	.	.
4BB#X/)	.	.	8f#\	.	.
*	*	*	*Xtuplet	*	*
.	.	.	24f#\L	.	.
.	.	.	24g#X\	.	.
.	.	.	24f#\J	.	.
4r	.	[4g#/)	8e\	.	.
.	.	.	8d#\J	.	.
!!LO:PB:g=original
=47	=47	=47	=47	=47	=47
*8ba	*	*	*	*	*
!	!	!LO:TX:a:i:t=sotto voce	!	!	!
!	!	!LO:TX:b:i:t=espressivo lento	!	!	!
4CCC#/	.	8g#/L]	4e\)	.	.
*X8ba	*	*	*	*	*
.	.	8a#/	.	.	.
4G# 4C#\	.	8b::/	2e::\	.	.
.	.	(<16qqb/LL	.	.	.
.	.	16qqcc#/JJ	.	.	.
.	.	8b/)	.	.	.
4G# 4C#\	.	8a#/	.	.	.
.	.	8g#/J	.	.	.
*	*	*v	*v	*	*
=48	=48	=48	=48	=48
4DD#/	.	(2a#: 2f##X:/	.	.
4F##X 4D#\	.	.	.	.
!!LO:TX:a:i:t=a tempo
4A# 4D#\	.	8f##/L	.	.
.	.	8d#/J)	.	.
=49	=49	=49	=49	=49
*	*	*^	*	*
4CC#/	.	(8g#/L	2.e\	.	.
.	.	8a#/	.	.	.
4G# 4C#\	.	8cc#/	.	.	.
.	.	(<16qqb/LL	.	.	.
.	.	16qqcc#/JJ	.	.	.
.	.	8b/)	.	.	.
4G# 4C#\	.	8a#/	.	.	.
.	.	8g#/J	.	.	.
=50	=50	=50	=50	=50	=50
4FF#/	.	2cc#/)	2.a#\	.	.
4A# 4C#\	.	.	.	.	.
4A# 4C#\	.	4cc#~/	.	.	.
!!LO:LB:g=original
=51	=51	=51	=51	=51	=51
4CC#/	.	(8g#/L	2.e\	.	.
.	.	8a#/	.	.	.
4G# 4C#\	.	8b/	.	.	.
.	.	(<16qqb/LL	.	.	.
.	.	16qqcc#/JJ	.	.	.
.	.	8b/)	.	.	.
4G# 4C#\	.	8a#/	.	.	.
.	.	8g#/J	.	.	.
*	*	*v	*v	*	*
=52	=52	=52	=52	=52
4DD#/	.	2a# 2f##X/	.	.
4F##X 4D#\	.	.	.	.
4A# 4D#\	.	8f##/L	.	.
.	.	8d#/J	.	.
=53	=53	=53	=53	=53
*	*	*^	*	*
4CC#/	.	8g#/L	2.e\	.	.
.	.	8a#/	.	.	.
4G# 4C#\	.	8cc#/	.	.	.
.	.	(<16qqb/LL	.	.	.
.	.	16qqcc#/JJ	.	.	.
.	.	8b/)	.	.	.
4G# 4C#\	.	8a#/	.	.	.
.	.	8g#/J	.	.	.
=54	=54	=54	=54	=54	=54
4FF#/	.	2cc#/)	2.a#\	.	.
4A# 4C#\	.	.	.	.	.
!	!	!LO:TX:b:i:t=espr.	!	!	!
4A# 4C#\	.	(4cc#/	.	.	.
!!LO:LB:g=original
=55	=55	=55	=55	=55	=55
4EE/	.	8b/L	2.gn\	.	.
.	.	8cc#/	.	.	.
4B 4Gn\	.	8ddn/	.	.	.
.	.	(<16qqdd/LL	.	.	.
.	.	16qqee/JJ	.	.	.
.	.	8dd/)	.	.	.
4B 4G\	.	8cc#/	.	.	.
.	.	8b/J	.	.	.
*	*	*v	*v	*	*
=56	=56	=56	=56	=56
4FF#/	.	2cc# 2a#\	.	.
4A# 4C#\	.	.	.	.
4A# 4C#\	.	8a#/L	.	.
.	.	.	.	>
.	.	8f#/J	.	.
=57	=57	=57	=57	=57
*	*	*^	*	*
4EE/	.	8b/L	2.gn\	.	.
.	.	.	.	.	]
.	.	8cc#/	.	.	.
4B 4Gn\	.	8ee/	.	.	.
.	.	(<16qqdd/LL	.	.	.
.	.	16qqee/JJ	.	.	.
.	.	8ddny/)	.	.	.
4B 4G\	.	8cc#/	.	.	.
.	.	8b/J	.	.	.
*	*	*v	*v	*	*
=58	=58	=58	=58	=58
4AAn/	.	2ee 2cc#\)	.	.
4c# 4E\	.	.	.	.
4c# 4E\	.	4ee~\	.	.
!!LO:LB:g=original
=59	=59	=59	=59	=59
*	*	*^	*	*
4EE/	.	(8b/L	2.gn\	.	.
.	.	8cc#/	.	.	.
4B 4Gn\	.	8ddn/	.	.	.
.	.	(<16qqdd/LL	.	.	.
.	.	16qqee/JJ	.	.	.
.	.	8dd/)	.	.	.
4B 4G\	.	8cc#/	.	.	.
.	.	8b/J	.	.	.
*	*	*v	*v	*	*
=60	=60	=60	=60	=60
4FF#/	.	2cc# 2a#\	.	.
4A# 4C#\	.	.	.	.
4A# 4C#\	.	8a#/L	.	.
.	.	8f#/J	.	.
=61	=61	=61	=61	=61
*	*	*^	*	*
4EE/	.	8b/L	2.gn\	.	.
.	.	8cc#/	.	.	.
4B 4Gn\	.	8ee/	.	.	.
.	.	(<16qqdd/LL	.	.	.
.	.	16qqee/JJ	.	.	.
.	.	8ddny/)	.	.	.
4B 4G\	.	8cc#/	.	.	.
.	.	8b/J	.	.	.
*	*	*v	*v	*	*
=62	=62	=62	=62	=62
!	!	!LO:TX:b:i:t=slentando	!	!
4AAn/	.	2ee 2cc#\)	.	.
4c# 4E\	.	.	.	.
4r	.	4ee~\	.	.
!!LO:LB:g=original
=63	=63	=63	=63	=63
!!LO:TX:a:B:t=Più vivo.
!	!	!LO:TX:a:i:t=legg.	!	!LO:DY:rj
(>8C#L 8FF#/	.	4f# 4e 4A#X/	.	p
8D#/J	.	.	.	.
4C# 4FF#'>/)	.	4f# 4e 4A#/	.	.
(>8C#L 8FF#/	.	4f# 4e 4A#/	.	.
8D#/J)	.	.	.	.
=64	=64	=64	=64	=64
!	!	!	!	!LO:HP:b=2
(>8C#L 8FF#/	.	4f# 4e 4A#/	.	<
8D#/J	.	.	.	.
4C# 4FF#'>/)	.	4f# 4e 4A#/	.	[
(>8C#L 8FF#/	.	4f# 4e 4A#/	.	.
8D#/J	.	.	.	.
=65	=65	=65	=65	=65
!!LO:TX:a:i:t=slentando
!	!	!	!	!LO:HP:b=2
8F#\L	.	4f# 4e 4A#/	.	>
8D#\J	.	.	.	.
4C# 4FF#/)	.	4f# 4e 4A#/	.	]
(>8C#L 8FF#/	.	4f# 4e 4A#/	.	.
8D#/J)	.	.	.	.
=66	=66	=66	=66	=66
*^	*	*	*	*
(2BB^/	4r	.	4r	.	.
!	!	!	!	!	!LO:HP:a=2
.	.	.	.	.	>
.	4BBB'\	.	4f# 4d# 4B/	.	.
4FF#/)	4ryy	.	4f# 4d# 4B/	.	]
*v	*v	*	*	*	*
!!LO:PB:g=original
=67	=67	=67	=67	=67
*	*	*^	*	*
!!LO:TX:a:i:t=a tempo
!	!	!LO:TX:b:i:t=espress.	!	!	!
4FF# 4BBB/	.	(8cc#/L	(4f#\	.	.
.	.	8dd#/J	.	.	.
4e 4A# 4F#\	.	4cc#/)	4f##X\	.	.
!	!	!	!	!	!LO:HP:a
4FF# 4BBB/	.	(8cc#/L	4g#\	.	<
.	.	8dd#/J)	.	.	.
=68	=68	=68	=68	=68	=68
4FF# 4BBB/	.	(8cc#/L	4g##X\	.	.
.	.	8dd#/J	.	.	.
4e 4A# 4F#\	.	4cc#/)	4a#\	.	[
!	!	!	!	!	!LO:HP:a
4FF# 4BBB/	.	(8cc#/L	4an\	.	>
.	.	8dd#/J	.	.	.
=69	=69	=69	=69	=69	=69
!	!	!	!LO:N:acc=n#	!	!
4FF# 4BBB/	.	8ff#/L	4g#X\	.	.
.	.	8dd#/J	.	.	.
4e 4A# 4F#\	.	4cc#/)	4gn\	.	.
4FF# 4BBB/	.	(8cc#/L	4f#\)	.	.
.	.	8dd#/J)	.	.	]
*	*	*v	*v	*	*
=70	=70	=70	=70	=70
4FF# 4BBB/	.	(2b\	.	.
4d# 4B 4F#\	.	.	.	.
4r	.	4f#/)	.	.
!!LO:LB:g=original
=71	=71	=71	=71	=71
4C#: 4FF#: 4BBB':/	.	(>8f#L 8e 8A#/	.	pp
.	.	8g#/J	.	.
4C#: 4FF#: 4BBB':/	.	4f# 4e 4A#'>/)	.	.
4r	.	(>8f#L 8e 8A#/	.	.
.	.	8g#/J)	.	.
=72	=72	=72	=72	=72
4C#: 4FF#: 4BBB':/	.	(>8f#L 8e 8A#/	.	.
.	.	8g#/J	.	.
4C#: 4FF#: 4BBB':/	.	4f# 4e 4A#'>/)	.	.
4r	.	(>8f#L 8e 8A#/	.	.
.	.	8g#/J)	.	.
=73	=73	=73	=73	=73
4C# 4FF# 4BBB/	.	(>8f#L 8e 8A#/	.	.
.	.	8g#/	.	.
4C# 4FF# 4BBB/	.	8f# 8e 8A#/	.	.
!	!	!	!	!LO:HP:t=poco cresc.
.	.	8g#/	.	<
4C# 4FF# 4BBB/	.	8f# 8e 8A#/	.	.
.	.	8g#/J	.	.
=74	=74	=74	=74	=74
4C# 4FF# 4BBB/	.	8f#L 8e 8A#/	.	.
.	.	8g#/	.	.
4C# 4FF# 4BBB/	.	8f# 8e 8A#/	.	.
.	.	8g#/	.	.
4C# 4FF# 4BBB/	.	8f# 8e 8A#/	.	.
.	.	8g#/J)	.	.
!!LO:LB:g=original
=75	=75	=75	=75	=75
4C# 4FF# 4BBB/	.	8f#L 8e 8A#/	.	.
.	.	8g#/J	.	.
4C# 4FF# 4BBB~/	.	4a# 4f# 4e 4A#~>/	.	sf
!	!	!	!	!LO:HP:t=cresc. molto
4BB 4FF# 4BBB/	.	8bL 8f# 8d# 8B/	.	<
.	.	8d#/J	.	.
=76	=76	=76	=76	=76
4FF# 4BBB/	.	8ff#L 8f#\	.	.
.	.	8gg#J 8g#\	.	.
4e 4c# 4F#^\	.	4aa# 4a#^\	.	.
4FF# 4BBB/	.	8bbL 8dd# 8b\	.	.
.	.	8dd#\J	.	.
=77	=77	=77	=77	=77
*	*	*8va	*	*
4FF# 4BBB/	.	8fff#L 8ff#\	.	.
.	.	8ggg#J 8gg#\	.	.
4e 4c# 4F#^\	.	4aaa# 4aa#^\	.	.
4FF# 4BBB/	.	8fff#L 8ff#\	.	.
.	.	8ggg#J 8gg#\	.	.
=78	=78	=78	=78	=78
4e 4c# 4F#^\	.	4aaa# 4aa#^\	.	.
4FF# 4BBB/	.	8fff#L 8ff#\	.	.
.	.	8ggg#J 8gg#\	.	.
4e 4c# 4F#^\	.	4aaa# 4aa#^\	.	.
!!LO:LB:g=original
=79	=79	=79	=79	=79
4BB 4FF# 4BBB/	.	8bbbL 8fff# 8ddd# 8bb\	.	ff
.	.	8cccc# 8ccc#\	.	.
8r	.	8bbbJ 8bb\	.	.
*clefG2	*	*	*	*
*	*	*X8va	*	*
8cc#\	.	8r	.	.
8b\	.	8r	.	.
8r	.	8ccc# 8cc#\	.	.
*clefF4	*	*	*	*
=80	=80	=80	=80	=80
8r	.	8bb 8b\	.	.
8c#\	.	8r	.	.
8B\	.	8r	.	.
8r	.	8cc# 8c#/	.	.
8r	.	8b 8B/	.	.
8C#/	.	8r	.	.
=81	=81	=81	=81	=81
8BB/	.	8r	.	.
*	*	*clefF4	*	*
8r	.	8c# 8C#\	.	.
4r	.	8B 8BB\	.	.
.	.	8r	.	.
!!LO:TX:a:B:t=Sostenuto.
!	!	!LO:TX:b:i:t=pesante	!	!
4GGn 4DDn 4GGGn^>/	.	4B 4E#X 4BB^\	.	.
=82	=82	=82	=82	=82
4GGn 4DDn 4GGGn^>/	.	4B 4E#X 4BB^\	.	.
4GG 4DD 4GGG^>/	.	4B 4E# 4BB^\	.	.
4GG 4DD 4GGG^>/	.	4B 4E# 4BB^\	.	.
*	*	*clefG2	*	*
!!LO:LB:g=original
=83	=83	=83	=83	=83
!!LO:TX:a:i:t=a tempo (vivace)
4FF# 4FFF#/	.	8ccc#L 8aa# 8ff# 8cc#\	.	ff
.	.	8ddd#J 8dd#\	.	.
4f##X 4F##X^\	.	4ccc# 4cc#\	.	.
4g#X 4G#X^\	.	8ccc#L 8cc#\	.	.
.	.	8ddd#J 8dd#\	.	<
=84	=84	=84	=84	=84
4g##X 4G##X^<\	.	8ccc#L 8cc#\	.	.
.	.	8ddd#J 8dd#\	.	.
4a# 4A#^<\	.	4ccc# 4cc#\	.	.
4an 4An^<\	.	8ccc#L 8cc#\	.	[
.	.	8ddd#J 8dd#\	.	.
=85	=85	=85	=85	=85
4g# 4A#X 4G#^\	.	8fff#L 8ff#\	.	.
.	.	8ddd#J 8dd#\	.	.
4gn 4A# 4Gn^\	.	4ccc# 4cc#\	.	.
4f# 4A# 4F#^\	.	8ccc#L 8cc#\	.	.
.	.	8ddd#J 8dd#\	.	.
=86	=86	=86	=86	=86
4BB 4FF# 4BBB^>/	.	4bb 4ff# 4dd# 4b^\	.	.
2BB 2FF# 2BBB^>/	.	2bb 2ff# 2dd# 2b^\	.	.
==	==	==	==	==
*-	*-	*-	*-	*-
!!!system-decoration: {(g1)}
!!!RDF**kern: i = editorial accidental
!!!RDF**kern: > = above
!!!RDF**kern: < = below
!!!RDF**kern: N = linked
!!!RDF**dynam: > = "dim.", fontstyle= "italic"
!!!ENC: Filip Voros
!!!EED: Katarzyna Serwa
!!!END: 2023-10-19
!!!EEV: 2023-11-06
